X:1
T:Title
%%score { ( 1 4 ) | ( 2 3 ) }
L:1/8
M:4/4
K:Db
V:1 treble nm="Grand Piano"
V:4 treble 
V:2 treble 
V:3 treble 
V:1
 z4 z2[Q:1/4=100] A>B | [FA]2 f2 d2 B2 | [FA]6 E>F | G6 z2 |[M:3/4] A6 |[M:1/4] A>B | %6
[M:4/4] [FA]2 f2 d2 B2 | [FA]6 A>A | B6 z2 |[M:3/4] [Fd]6 |[M:1/4] AA | %11
[M:4/4] c2 c2 [DGB]2 [CGA]2 | F4- [Fd]2 [Fd][Fd] | [Fd]2 [Fd]2 [=Gf]2 [Ge]2 |[M:3/4] e6 | %15
[M:1/4] ee |[M:4/4] [Af]2 [Ae]2 [Ad]2 [Ac]2 | B4 d2 B2 | %18
[M:35/32] A4 d2 e-(3:2:4e3/2-e/4[Fd]3/4-[Fd]/8 |[M:3/4] [Fd]6 |] %20
V:2
 z4 z2 F>G | z2[K:treble] A2 F2 G2 | [D,,D,]6 C>D | E6[K:treble] z2 |[M:3/4] F6[K:bass] | %5
[M:1/4][K:treble] F>G |[M:4/4][K:bass] z2[K:treble] A2 F2 G2 | [D,,D,]6[K:treble] F>F | %8
 G6[K:bass][K:treble] z2 |[M:3/4][K:bass] [D,A,]2 D,>D, D,2 |[M:1/4][K:treble] [A,CG][A,CG] | %11
[M:4/4] [A,EG]2 [A,EG]2[K:bass] A,,2 A,,2 | z4 A,2 [D,A,D][D,A,D] | [B,D]2 [B,D]2 [E,D]2 [E,D]2 | %14
[M:3/4][K:treble] [A,CA]6 |[M:1/4] [A,CA][A,CA] |[M:4/4][K:bass] [D,D]2 [E,C]2 [F,D]2 [F,D]2 | %17
 [G,DG]4 [G,B,E]2[K:treble] [=G,D_F]2 |[M:35/32] [A,D]4 z4[K:bass] z3/4 |[M:3/4] [D,A,D]6 |] %20
V:3
 x8 | [D,,D,]8[K:treble] | x8 | z2 A,,>A,, A,,2[K:treble] G>F | %4
[M:3/4] z2[K:bass] D,>[D,A,] [D,A,]2 |[M:1/4][K:treble] x2 |[M:4/4][K:bass] [D,,D,]8[K:treble] | %7
 x6[K:treble] x2 | z2[K:bass] G,>G, G,2[K:treble] [A,G]>[A,G] |[M:3/4][K:bass] x6 | %10
[M:1/4][K:treble] x2 |[M:4/4] x4[K:bass] x4 | D,6 z2 | x8 |[M:3/4][K:treble] x6 |[M:1/4] x2 | %16
[M:4/4][K:bass] x8 | x6[K:treble] x2 | %18
[M:35/32] F4- [A,F]2[K:bass] [A,,CG]-(3:2:4[A,,CG]3/2-[A,,CG]/4[D,A,D]3/4-[D,A,D]/8 |[M:3/4] x6 |] %20
V:4
 x8 | x8 | x8 | z2 A,>A, A,2 B>A |[M:3/4] z2 A,>D D2 |[M:1/4] x2 |[M:4/4] x8 | x8 | z2 D>D D2 c>c | %9
[M:3/4] z2 A,>A, A,2 |[M:1/4] x2 |[M:4/4] x8 | [DA]4 z4 | x8 |[M:3/4] x6 |[M:1/4] x2 |[M:4/4] x8 | %17
 x8 |[M:35/32] x35/4 |[M:3/4] x6 |] %20

